svg/Pictogram/pictograms-aem-0108-falling_from_bucket.svg

<?xml version="1.0" encoding="ISO-8859-1" standalone="yes"?>
<svg height="305.909" width="305.909">
  <metadata>
    <rdf:RDF xmlns:cc="http://web.resource.org/cc/" xmlns:dc="http://purl.org/dc/elements/1.1/" xmlns:rdf="http://www.w3.org/1999/02/22-rdf-syntax-ns#">
      <cc:Work rdf:about="">
        <dc:title></dc:title>
        <dc:description></dc:description>
        <dc:subject>
          <rdf:Bag>
            <rdf:li></rdf:li>
          </rdf:Bag>
        </dc:subject>
        <dc:publisher>
          <cc:Agent rdf:about="http://www.unece.org/trans/danger/publi/ghs/pictograms.html">
            <dc:title>Source: UNECE GHS of Classification and Labeling of Chemicals, Source: AEM Pictorial Database, Source: AEM Pictorial Database, Source: AEM Pictorial Database, Source: AEM Pictorial Database</dc:title>
          </cc:Agent>
        </dc:publisher>
        <dc:creator>
          <cc:Agent>
            <dc:title></dc:title>
          </cc:Agent>
        </dc:creator>
        <dc:rights>
          <cc:Agent>
            <dc:title></dc:title>
          </cc:Agent>
        </dc:rights>
        <dc:date></dc:date>
        <dc:format>image/svg+xml</dc:format>
        <dc:type rdf:resource="http://purl.org/dc/dcmitype/StillImage"/>
        <cc:license rdf:resource="http://en.wikipedia.org/wiki/Public_domain"/>
        <dc:language>en</dc:language>
      </cc:Work>
    </rdf:RDF>
  </metadata>
  <defs><marker id="ArrowEnd" markerHeight="3" markerUnits="strokeWidth" markerWidth="4" orient="auto" refX="0" refY="5" viewBox="0 0 10 10"><path d="M 0 0 L 10 5 L 0 10 z"/></marker><marker id="ArrowStart" markerHeight="3" markerUnits="strokeWidth" markerWidth="4" orient="auto" refX="10" refY="5" viewBox="0 0 10 10"><path d="M 10 0 L 0 5 L 10 10 z"/></marker> </defs>
  <g id="g2958" transform="matrix(1.3532768,0,0,1.3532781,-53.207834,-52.192858)">
    <path d="M 72.4056 93.2614C 72.1985 98.4404 76.2298 102.808 81.4095 103.018C 86.5892 103.226 90.9563 99.1944 91.1634 94.0154C 91.3743 88.8354 87.3431 84.4684 82.1634 84.2614C 76.9837 84.0504 72.6165 88.0854 72.4056 93.2614" style="stroke:none; fill-rule:evenodd; fill:#000000"/>
    <path d="M 48.761 61.6404C 50.8821 61.7264 52.6829 62.9214 53.6673 64.6404L 53.6712 64.6364C 53.6712 64.6364 71.6438 100.679 72.7181 102.331C 72.7298 102.35 72.7415 102.374 72.7571 102.393C 73.8704 104.042 77.2259 106.339 80.5345 106.472C 83.8821 106.604 85.4524 105.929 85.4524 105.929L 121.108 86.6284L 121.12 86.6434C 122.089 86.0464 123.241 85.7184 124.468 85.7684C 127.745 85.9014 130.296 88.6634 130.163 91.9404C 130.073 94.1674 128.753 96.0344 126.897 96.9764L 87.0306 118.405L 86.5423 137.304L 106.229 127.226C 109.104 125.796 111.061 128.093 111.061 128.093L 134.03 152.874L 134.018 152.886C 135.061 154.003 135.675 155.522 135.608 157.175C 135.479 160.448 132.718 162.999 129.44 162.866C 127.62 162.796 126.05 161.893 125.011 160.561L 108.128 140.987C 106.968 139.804 105.733 140.491 105.733 140.491L 85.7337 150.757L 125.78 177.347C 127.409 178.464 128.456 180.354 128.37 182.472C 128.237 185.749 125.475 188.3 122.198 188.167C 121.194 188.128 120.268 187.815 119.46 187.339L 119.44 187.366L 118.972 187.05C 118.952 187.034 118.929 187.022 118.901 187.003L 65.3977 150.878C 64.4954 150.038 64.2181 148.55 64.2181 148.55L 65.6282 113.452L 43.4876 70.7184C 42.8743 69.7374 42.5384 68.5734 42.5892 67.3354C 42.722 64.0584 45.4837 61.5074 48.761 61.6404" style="stroke:none; fill-rule:evenodd; fill:#000000"/>
    <path d="M 200.714 175.073C 202.421 173.374 202.421 170.62 200.714 168.921C 199.011 167.222 196.241 167.222 194.538 168.921C 192.831 170.62 192.831 173.374 194.538 175.073C 196.241 176.776 199.007 176.776 200.714 175.073" style="stroke:none; fill-rule:evenodd; fill:#000000"/>
    <path d="M 210.491 189.444L 260.991 222.542L 260.991 217.312L 213.917 186.311C 212.89 187.472 211.741 188.522 210.491 189.444" style="stroke:none; fill-rule:evenodd; fill:#000000"/>
    <path d="M 260.991 209.589L 260.991 204.355L 218.89 176.675C 218.538 178.214 218.022 179.686 217.366 181.081L 260.991 209.589" style="stroke:none; fill-rule:evenodd; fill:#000000"/>
    <path d="M 218.89 176.675C 219.249 175.1 219.456 173.472 219.456 171.792C 219.456 166.886 217.847 162.358 215.124 158.706L 212.288 155.796L 182.628 126.175L 123.507 185.061L 117.358 185.061L 108.593 193.765L 197.655 193.745L 198.038 193.702C 202.698 193.597 206.987 192.026 210.491 189.444C 211.741 188.522 212.89 187.472 213.917 186.311C 215.3 184.749 216.468 182.991 217.366 181.081C 218.022 179.686 218.538 178.214 218.89 176.675zM 197.694 185.042L 135.87 185.054L 182.608 138.507L 206.909 162.749C 212.026 167.847 212.026 176.116 206.905 181.218C 204.362 183.749 201.026 185.026 197.694 185.042" style="stroke:none; fill-rule:evenodd; fill:#000000"/>
    <path d="M 29.6204 267.288L 2.62042 267.288" style="stroke:#000000; stroke-width:0.5; fill:none"/>
    <path d="M 38.6204 276.288L 38.6204 303.288" style="stroke:#000000; stroke-width:0.5; fill:none"/>
    <path d="M 29.6204 38.6244L 2.62042 38.6244" style="stroke:#000000; stroke-width:0.5; fill:none"/>
    <path d="M 38.6204 29.6244L 38.6204 2.62042" style="stroke:#000000; stroke-width:0.5; fill:none"/>
    <path d="M 276.288 38.6244L 303.288 38.6244" style="stroke:#000000; stroke-width:0.5; fill:none"/>
    <path d="M 267.288 29.6244L 267.288 2.62042" style="stroke:#000000; stroke-width:0.5; fill:none"/>
    <path d="M 276.288 267.288L 303.288 267.288" style="stroke:#000000; stroke-width:0.5; fill:none"/>
    <path d="M 267.288 276.288L 267.288 303.288" style="stroke:#000000; stroke-width:0.5; fill:none"/>
  </g>
</svg>

<svg viewBox="0 0 305.91 305.91"><g transform="matrix(1.35328 0 0 1.35328-53.21-52.19)" fill-rule="evenodd"><path d="m72.41 93.26c-.207 5.179 3.824 9.547 9 9.757 5.18.208 9.547-3.824 9.754-9 .211-5.18-3.82-9.547-9-9.754-5.18-.211-9.547 3.824-9.758 9"/><path d="m48.761 61.64c2.121.086 3.922 1.281 4.906 3l.004-.004c0 0 17.973 36.04 19.05 37.695.012.019.023.043.039.062 1.113 1.649 4.469 3.946 7.777 4.079 3.348.132 4.918-.543 4.918-.543l35.656-19.301.012.015c.969-.597 2.121-.925 3.348-.875 3.277.133 5.828 2.895 5.695 6.172-.09 2.227-1.41 4.094-3.266 5.04l-39.866 21.429-.488 18.899 19.687-10.08c2.875-1.43 4.832.867 4.832.867l22.969 24.781-.012.012c1.043 1.117 1.657 2.636 1.59 4.289-.129 3.273-2.89 5.824-6.168 5.691-1.82-.07-3.39-.973-4.429-2.305l-16.883-19.574c-1.16-1.183-2.395-.496-2.395-.496l-19.999 10.266 40.05 26.59c1.629 1.117 2.676 3.01 2.59 5.125-.133 3.277-2.895 5.828-6.172 5.695-1-.039-1.93-.352-2.738-.828l-.02.027-.468-.316c-.02-.016-.043-.028-.071-.047l-53.5-36.12c-.902-.84-1.18-2.328-1.18-2.328l1.41-35.1-22.14-42.734c-.613-.981-.949-2.145-.898-3.383.133-3.277 2.895-5.828 6.172-5.695"/><path d="m200.71 175.07c1.707-1.699 1.707-4.453 0-6.152-1.703-1.699-4.473-1.699-6.176 0-1.707 1.699-1.707 4.453 0 6.152 1.703 1.703 4.469 1.703 6.176 0"/><path d="m210.49 189.44l50.5 33.1v-5.23l-47.07-31c-1.027 1.161-2.176 2.211-3.426 3.133"/><path d="m260.99 209.59v-5.234l-42.1-27.68c-.352 1.539-.868 3.01-1.524 4.406l43.625 28.508"/><path d="m218.89 176.68c.359-1.575.566-3.203.566-4.883 0-4.906-1.609-9.434-4.332-13.09l-2.836-2.91-29.66-29.621-59.12 58.886h-6.149l-8.765 8.704 89.06-.02.383-.043c4.66-.105 8.949-1.676 12.453-4.258 1.25-.922 2.399-1.972 3.426-3.133 1.383-1.562 2.551-3.32 3.449-5.23.656-1.395 1.172-2.867 1.524-4.406m-21.2 8.367l-61.824.012 46.738-46.547 24.301 24.24c5.117 5.098 5.117 13.367-.004 18.469-2.543 2.531-5.879 3.808-9.211 3.824"/></g></svg>
